X: 1387
T: Dolphy's Set Tune
B: australian traditional tunes wiki
M:2/4
L:1/16
R: Set Tune
Q: 1/4=100
K:D
V:1 
AA|"D"A2F2 D2FF|A2F2 D2FF|A2d2 c2B2|"A"c4-c2EF|
G2F2 E2FF|G2F2 E2EF|G2G2 F2G2|"D"A2AA A2AA|
A2F2 D2FF|A2F2 D2FF|A2d2 c2B2|"A"c4- c2EF|
G2F2 E2D2|C2E2 A2AA|B2A2 B2c2|"D"d4-d2:|
% abcbook-tune_id 6342d53ab2cdd98c9404b95f


% abcbook-boost 0
% abcbook-tablature 
% abcbook-transpose 
% abcbook-lastupdated 1665324362524
% abcbook-soundfonts 
% abcbook-repeats 1
% NFF Book 2006

